X:0042
T:The Hay makers.
M:6/8
L:1/8
Q:3/8=120
I: :: ::
Z:Jack Campin * www.campin.me.uk * 2009
K:G
D|G2B (A/B/c)A| B2G     AF
D|G2B (A/B/c)A|(B/c/d)B G2:|
G|B2d  g2d    |(e/f/g)e dB
G|B2d  g2d    |(e/f/g)e d2:|
B|c2e  dBG    |(A/B/c)A B2
G|c2e  dBG    |(A/B/cA) G2:|
<end>
<start>
